X:5165
T:Polca
O:england
C:La Ciapa Rusa: ten .. 1c
M:2/4
L:1/16
K:G
d2|g3d e2d2|e6 d2|BdBd B2d2|~c2A2- A2d2|\
a3d a2d2|a3a a2d2|(3ded (3cdc (3BcB A2|B2G2- G2d2|
g3d e2d2|e6 d2|BdBd e2d2|~c2A2- A2d2|\
a3d a2d2|f3f f2~e2|d2~c2 B2~A2|G8-|G4||
e2(3ded|B3B B2d2|~c2A2 A2B2|c3B c2d2|~e2d2 d2g2|\
g3f f2e2|f4 ~e2d2|A6d2|G6-|G4:|
d2|edBd edBd|gdBd edBd|gdBd edBd|~d2c2 c2d2|\
adcd edcd|adcd edcd|adcd edcd|~B2G2 G2d2|\
edBd edBd|gdBd edBd|gdBd edBd|~d2c2 c2d2|\
d2d2 e2de|f2f2 f2~e2|d2~c2 B2~A2|G6-|G4||


